X: 65
T: Pollonesse #65
M: 3/4
L: 1/16
K: F
Q:120
F2AB c4d4|cdcB A2GA F4|c2dc B4A4|A2GF E2DE C4|
c2de f2c2 g2c2|a2c2 g2c2 f2c2|c2de f2c2 g2c2|a2c2 g2c2 f2c2|
fgfe d2e2 f2g2|agfe f4F4::c2ef g4a4|gagf e2de c4|
g2fe a2g2 f2e2|d2c=B c4 C4|c2de f4A4|cdcB A2GA F4|
fgfe d2e2 f2g2|agfe f4F4:|

